X:64
T:Blooms of Bon Accord
C:James Scott Skinner
S:Colin Hume's website,  colinhume.com  - chords can also be printed below the stave.
Q:1/2=116
M:2/2
L:1/8
K:A
P:A
|: E2 | "A"c2z2 "/"c4 | "A"{c}BABc "/"A2E2 | "Bm"d2z2 "/"d4 | "E7"{d}cBcd "/"B2E2 |\
"A"e2z2 "Aaug"=f4 | "D"g3^f "Bm"d2B2 | "A"AE^DE "E7"c2B2 | "E7"{c}B4 "A"A2 :|
P:B
|| GA | "E7"B2E2 "/"e4 | "E7"d2c2 "/"B4 | "A"c4 "/"B3c | "A"B2(A2 "/"G2A2) |\
"E7"B2E2 "/"e4 | "E7"d2c2 "/"B4 | "A"c2^de "B7"e2d2 | "E"e4 "E7"z2=d2 ||
P:A3
|| "A"c2z2 "/"c4 | "A"{c}BABc "/"A2E2 | "Bm"d2z2 "/"d4 | "E7"{d}cBcd "/"B2E2 |\
"A"e2z2 "Aaug"=f4 | "D"g3^f "Bm"d2B2 | "A"AE^DE "E7"c2B2 | "E7"{c}B4 "A"A2 ||

